X:1
T:Title
T:Cavalleria
T:Composer
C:Composer
%%score ( 1 2 )
L:1/8
M:3/4
K:A
V:1 treble nm="Piano" snm="Pno."
V:2 treble 
V:1
"^Tenores I y II" ef e4- | e6- | e6 | z6 | z6 | z6 |[M:6/4]"^Sopranos I" F2 G2 A2 B4 c2 | %7
w: Ah! * *||||||(...rad- * * dop- pi\-al|
[M:2/2] c/B/A- A4- A"^Tenores"E | B>B B3 B c/B/A/B/ | cE A4 z e | ^dB=dd ccBF | B2 E4 z E | %12
w: cor.) * * * * In|me- zo\-al cam- po tra le spi- che|d'o- * ro giun-|ge\-il ru- mo- re del- le vos- tre|spo- le noi|
 B2 B3 B/B/ c/B/A/B/ | cE A4 z e | ^dBAe dBAe | ^dB G4 z e |[M:6/8] f2 f fff | e2 e edc | d6 | %19
w: stan- chi ri- po- san- do dal la-|vo- * ro a|voi pen- sia- mo,o bel- le\-oc- chi di|so- * le. O|bel- le oc- chi di|so- le, a voi cor-|ria-|
 c3 z z2 | z cc =ccc | ^c2 c- c2 z | fed d3 | c3- c2 z | z6 | z6 | z6 | z6 | %28
w: mo,|co- me vo- la l'an-|gel- lo *|al suo ri- chia-|mo. *|||||
[M:6/4]"^Sopranos I" F2 G2 A2 B4 c2 |[M:2/2] c/B/A- A4- A"^Tenores"E | B>B B3 B c/B/A/B/ | %31
w: (...rad- * * dop- pi\-al|cor.) * * * * In|me- zo\-al cam- po tra le spi- che|
 cE A2 z2 z e | ^dB=dd ccBF | B2 E2- E z2 E | B2 B3 B/B/ c/B/A/B/ | cE A2 z2 z e | ^dBAe dBAe | %37
w: d'o- * ro giun-|ge\-il ru- mo- re del- le vos- tre|spo- le, * noi|stan- chi ri- po- san- do dal la-|vo- * ro a|voi pen- sia- mo,o bel- le\-oc- chi di|
 ^dB G4- Ge |[M:6/8] f2 f fff | e2 e edc | d6 | c3 z z2 | z cc =ccc | ^c2 c- c3/2 z/ z | fed d3 | %45
w: so- * le. * O|bel- le oc- chi di|so- le, a voi cor-|ria-|mo,|co- me vo- la l'au-|gel- lo *|al suo ri- chia-|
 c3 z z2 | z6 | z6 | z6 |[M:3/4] ef e4- | e4 z2 | z2 e4- | e4 z2 | z6 | z6 | z6 | z6 | %57
w: mo.||||Ah! * *||Ah!||||||
[K:G][M:2/4][K:bass][Q:1/4=100]"^Alfio" z2 z =F, | B,4- | B,4 | %60
w: (...Eh!|là!|)|
[K:E][K:treble]"^Tenores I" .e.d .c.d | B2 c2 | .=d.c .B.c | A2 B2 | z =c =GA | BF B2- | B4- | B4 | %68
w: O che bel mes-|tie- re|fa- re\-il car- ret-|tia- re|an- dar di|quà\-e di là!|||
 .e.d .c.d | B2 c2 | .f.^e .^d.e | c3/2 z/ d2 | z ._a ._e.=f | =g=c g2 | z .=f .=c.=d | .e.A e2 | %76
w: O che bel mes-|tie- re|fa- re\-il car- ret-|tie- re|an- dar di|quà\-e di là,|an- dar di|quà\-e di là,|
 z2 z A | =cA/B/ cA | f4- | f4 | z2 z A | =cA/B/ cA | f4- | f.f .f.f | B7/2 B/ | B4 | z4 | z4 | %88
w: an-|dar di * quà\-e di|là||an-|dar di * quà\-e di|là|* an- dar di|quà di|là!|||
 z4 | z4 |[K:G][K:bass]"^Alfio" z2 z =F, | B,4- | B,4 ||[K:E][K:treble]"^Tenores I" z2 ef | %94
w: ||(...son|quà!|)|O che|
 gf ^ec | z2 fg | ^ag ^^fd | z2 z _a | _e=f =g=c | =f z z f | =c=d =eA | e3 z | z A =cA/B/ | %103
w: bel mes- tie- re|fa- re\-il|car- ret- tie- re|an-|dar di quà\-e di|là, an-|dar di quà\-e di|là,|an- dar di *|
 =cA ^f2- | ^f4- | ^f2 z2 | z A =cA/B/ | =cA f2- | f3 f | ff b2- | b4 | ed cd | B2 c=d | _g=f _ef | %114
w: quà\-e di là|||an- dar di *|quà\-e di là|* di|quà\-e di là!||Oh che bel mes-|tie- re *|fa- re\-il ca- ret-|
 _d2 _e2 | _a=g =fg | _e2 =f2 | z2 z d | _b2 z e | _b2 z b | _c' z z =f | =f z z _b | _c' z z =f | %123
w: tie- re,|oh che bel mes-|tie- re|e\-an-|dar di|quà di|là, di|là, di|quà an-|
 =ff ff | =f7/2 z/ | z ^D E^F | ^G=A B^c | de fg | a z z2 | z4 | z2 z f | ff ff | g4- | g z z2 | %134
w: dar di quà\-e di|là|an- dar di|quà\-e di là, an-|dar di quà\-e di|là,||an-|dar di quà\-e di|là!||
 z4 | z4 | z4 | z4 |[K:G][M:2/2][Q:1/4=140] d8 | d4 d4 | e8 | e4 e4 | d4 e4 | f8 | z8 | z4 B4 | %146
w: ||||Re-|gi- na|Coe-|li, lae-|ta- *|re||Quia,|
 B8- | B2 B2 B2 B2 | B4 ^c4 | A4 A4 | z8 | z4 (3:2:2=c4 c2 | c8 | c4 (3:2:2c4 c2 | c8 | B4 ^c2 d2 | %156
w: quem|* me ru- i-|sti por-|ta- re...||Re- sur-|re-|xit si- cut|di-|xit, Re- sur-|
 e4 ^c4 | d4 B4 | A8 | A8 | z4 (3:2:2D4 D2 |[M:12/8][Q:1/4=80] d3 d2 d B3 B2 B | f6 f3 d2 d | %163
w: re- xit|si- cut|di-|xit|In- neg-|gia- mo,il Si- gnor non è|mor- to! Ei ful-|
 c3 c2 c A3 A2 A | e6- e3 _e2 e | d z2 d2 d d3 d2 d | d6 d3 d2 d | d3 def e3 e2 e | d6- d3 d2 d | %169
w: gen- te\-ha di- schiu- so l'a-|vel * in- neg-|gia- mo\-al Si- gno- re ri-|sor- to og- gi\-a-|sce- so al- la glo- ria del|ciel * in- neg-|
 d2 z d2 d B3 B2 B | f6 f3 d2 d | c3 c2 c A3 A2 A | e6- e3 c2 c | c3 c2 c ^c3 c2 c | =f6 e3 e2 e | %175
w: gia- mo\-il Si- gnor non è|mor- to Ei ful-|gen- te\-ha di- schiu- so l'a-|vel * in- neg-|gia- mo\-al Si- gnor- re ri-|sor- to og- gi\-a-|
 de^f g3- g2 f/e/ f2- f/g/ | g6 z2 z4 | z12 | z12 | z12 | z12 | z12 | z12 | %183
w: sce- so\-al- la glo- * * * ria * del|ciel!|||||||
"^Santuzza" g^fg e3- eef gfe | d6- dF"^Tenores I"G AGE | z3 d2 d d3 d2 z | z6 z3 E2 E | %187
w: (...glo- ria del ciel, * al- la glo- ria del|ciel) * al- la glo- ria del|Al- le- lu- ja!|Ei ful-|
 c6- cAB cde | d3- d z z z"^Sopanos" Bc de=f | e^de g3- gfe =d2 z | e^de g3- gfe =d2 z | %191
w: gen- * te\-ha dis- chiu- so l'a-|vel! * (...mo\-al Si- gno- re ri-|sor- to\-og- gi\-a- sce- * * * so)|og- * gi\-a- sce- * * * so|
 z6 e^de g3- | gfe =d3- dce dcd | B z2 z6 E2 E | z3 ^e2 e f3 f3 | z6 z6 | z3 z =ff f3- fff | %197
w: al- * la glo-|* ria del ciel * al- la glo- ria del|ciel! Ei ful-|al- le- lu- ja!||og- gi\-a- sce- * so\-al- la|
[M:6/8] =f3 _e2 e |[M:12/8] =f3 f3 _a3- a2 g | =f_eG d2 c c_B_E B2 _A | %200
w: glo- ria del|ciel og- * * gi\-a-|sce- * so al- la glo- * * ria del|
 G z z[K:bass] z3 z"^Bajos" G,G, G,^F,G, | _A,2 z z3[K:treble]"^Chicas" z _AA AGA | %202
w: ciel (In- neg- gia- mo\-al Si-|gnor) (In- ne- gia- mo\-al Si-|
 =A2 z4 z"^Tenores I" AA A^GA | _B2 z z2 z z =BB B^AB |[M:6/8] c=Bc cBc | %205
w: gnor.) In- neg- gia- mo\-al Si-|gnor, In- neg- gia- mo\-al Si-|gnor, In- neg- gia- mo\-al Si-|
[M:12/8] ccc ccc c z z D2 D | B6- BGA Bcd | B3- B2 A G3 G2 G | e6- ecd e=fg | e3- e2 d c3 cde | %210
w: gnor in- neg- gia- mo\-al Si- gnor, in- neg-|gia- * mo\-il Si- gnor non è|mor- * * to! In- ne-|gia- * mo\-al Si- gno- re ri-|so- * * to og- gi a-|
 =fef d6 def | g^fg e6 z z2 | z3 cde =fef e3 |[M:6/8] d^cd e^fg |[M:12/8] g2 z d3- dAB =cBA | %215
w: sce- so\-al- la glo- ria, al- la|glo- ria del ciel,|og- * gi\-a- sce- sol a- sce-|so al- la glo- ria del|ciel, ah! * al- la glo- ria del|
 z3 d2 d e6 | B3 B2 B d6 | A3 A2 A A6 | A z2 d2 d d6 | d z2 d2 d d6 | d z2 d2 d d6 | %221
w: Al- le- lu|ja al- le- lu-|ja, al- le- lu-|ja al- le- lu-|ja, al- le- lu-|ja, al- le- lu-|
 ddd d3 ddd d3 | d z2 z3 z3 z3 | z3 g2 g g6 | g6- g3- g2 z | z12 | z12 | z12 | z12 | %229
w: ja, al- le- lu- ja, al- le- lu-|ja!|Al- le- lu-|ja! * *|||||
[K:F][M:2/4][Q:1/4=100] z2 z .c | .c.c z .c | ._d.d z .d | _e4 | c3 z | z B GB | c>c c2 | z B GB | %237
w: A|ca- sa, a|ca- sa, a-|mi-|ci,|o- ve ci\-a-|spet- ta- no|le no- stre|
 c2 cc | f4- | f4 | z f ec | d3 d | ee{/g} fe | dA c2- | (3cAc (3BAG | c4- | c z z2 | z4 | z4 | %249
w: don- ne, an-|diam||Or che le-|ti- zia|ras- se- re- na|glia\-a- ni- mi|* sen- za\-in- du- gio cor-|riam.||||
 z4 | z2 z c | cc z c | _dd z d | _e4 | c3 z | z B GB | c>c c2 | z B GB | c2 ce | f4- | f4- | %261
w: |A|ca- sa, a|ca- sa, a-|mi-|ci,|o- ve ci\-a-|spet- ta- no|la no- stre|don- ne, an-|diam||
 f z z2 | z4 | z4 | z4 |[K:G] z4 |"^Turiddu" g3 f | g2 z2 | ff z2 | z4 | z4 | z4 | ff z2 | z4 | %274
w: |||||(...te- ne-|ra.)|Vi- va,||||vi- va,||
 z4 | z4 | ee z2 | z4 | z4 | z4 | ee z2 | z2 z e | e2 z2 | z2 z d | de eA | dd z d | de eA | %287
w: ||Vi- va,||||vi- va!|be-|viam!|Rin-|no- vi- si la|gio- stra! Rin-|no- vi- si la|
 dd z2 | z4 | z2 =f2 | =c2 _e2 | _B2 _d2 | (3_A_B=B (3^F^G=A | =E4- | E2 ^F2 | G z z2 | z4 | %297
w: gio- stra!||Be-|viam, be-|viam, rin-|no- * vi- si * la|gio-||tra!||
 z2 .d.G | z4 | z2 .g.c | z4 | gf eg | fd e2- | e>c d2 | g2 f2 | (3def eB | e2 B2 | f2 e2 | %308
w: Vi- va!||Vi- va!||Vi- va! mi- te\-in-|fon- de\-il giu-|* bi- lo!|Vi- va\-il|vin- * no ch'è sin-|ce- ro|che ci\-al-|
 (3cde dA | d2 d2 | g2 g2 | gg gg | g2 g2 | (3fed gg | g3 f | g z G^G | A2 A^A | B2 B^B | ^c2 cd | %319
w: lie- ta o- gni pen-|sie- ro,|e che\-an-|ne- ga l'u- mor|ne- ro|nel- * l'èb- brez- za|te- ne-|ra! Vi- va\-il|vin! vi- va\-il|vin, vi- va\-il|vin, vi- va\-il|
 ^d2 z2 | ff z2 | ff z2 | z2 z f | g z z2 | z =f2 f | =f z z2 | z _a2 a | _a z z2 | z =B BB | %329
w: vin!|vi- va!|vi- va!|Be-|viam!|Vi- va\-il|vin!|vi- va\-il|vin!|Be- viam, be-|
 BB BB | f4- | f4- | f4- | f2 z2 | z2 z f | b4- | b4- | b4- | b/ z/ z z2 | z4 | z4 | z4 | z4 | %343
w: viam, be- viam, be-|viam!||||Be-|viam||||||||
[K:C][M:2/2][K:bass]"^Alfio" =F8 | D z[K:treble] z2 (3z ff (3fff | g8 | g2 z2 z4 | z8 | z8 | z8 | %350
w: (...lu-|te.) Com- par Al- fio, sa-|lu-|te.||||
 z8 ||[K:F] z2 (3BBB (3BBB (3BBB | B2 B2 z4 | =g4- g z z2 | z8 | z8 | z8 | z8 | z8 | z8 | z8 | z8 | %362
w: |(Han- no\-am- maz- za- to com- pa- re Tu-|rid- du!)|Ah! *|||||||||
 z8 | z8 | z8 | z8 | z8 | z8 | z8 | z8 | z8 | z8 | z8 | z8 | z8 | z8 | z8 | z8 | z8 | z8 | z8 | %381
w: |||||||||||||||||||
 z8 | z8 | z8 | z8 | z8 | z8 | z8 | z8 | z8 | z8 | z8 | z8 | z8 | z8 | z8 | z8 | z8 | z8 | z8 | %400
w: |||||||||||||||||||
 z8 | z8 | z8 | z8 | z8 | z8 | z8 | z8 | z8 | z8 | z8 | z8 | z8 | z8 | z8 | z8 | z8 | z8 | z8 | %419
w: |||||||||||||||||||
 z8 | z8 | z8 | z8 | z8 | z8 | z8 | z8 | z8 | z8 | z8 | z8 | z8 | z8 | z8 | z8 | z8 | z8 | z8 | %438
w: |||||||||||||||||||
 z8 | z8 | z8 | z8 | z8 | z8 | z8 | z8 | z8 | z8 | z8 | z8 | z8 | z8 | z8 | z8 | z8 | z8 | z8 | %457
w: |||||||||||||||||||
 z8 | z8 | z8 | z8 | z8 | z8 | z8 | z8 | z8 | z8 | z8 | z8 | z8 | z8 | z8 | z8 | z8 | z8 | z8 | %476
w: |||||||||||||||||||
 z8 | z8 | z8 | z8 | z8 | z8 | z8 | z8 | z8 | z8 | z8 |] %487
w: |||||||||||
V:2
 x6 | x6 | x6 | x6 | x6 | x6 |[M:6/4] x12 |[M:2/2] x8 | x8 | x8 | x8 | x8 | x8 | x8 | x8 | x8 | %16
w: ||||||||||||||||
[M:6/8] x6 | x6 | x6 | x6 | x6 | x6 | x6 | x6 | x6 | x6 | x6 | x6 |[M:6/4] x12 |[M:2/2] x8 | x8 | %31
w: |||||||||||||||
 x8 | x8 | x8 | x8 | x8 | x8 | x8 |[M:6/8] x6 | x6 | x6 | x6 | x6 | x6 | x6 | x6 | x6 | x6 | x6 | %49
w: ||||||||||||||||||
[M:3/4] x6 | x6 | x6 | x6 | x6 | x6 | x6 | x6 |[K:G][M:2/4][K:bass] x4 | x4 | x4 | %60
w: |||||||||||
[K:E][K:treble] x4 | x4 | x4 | x4 | x4 | x4 | x4 | x4 | x4 | x4 | x4 | x4 | x4 | x4 | x4 | x4 | %76
w: ||||||||||||||||
 x4 | x4 | x4 | x4 | x4 | x4 | x4 | x4 | x4 | x4 | x4 | x4 | x4 | x4 |[K:G][K:bass] x4 | x4 | x4 || %93
w: |||||||||||||||||
[K:E][K:treble] x4 | x4 | x4 | x4 | x4 | x4 | x4 | x4 | x4 | x4 | x4 | x4 | x4 | x4 | x4 | x4 | %109
w: ||||||||||||||||
 x4 | x4 | x4 | x4 | x4 | x4 | x4 | x4 | x4 | x4 | x4 | x4 | x4 | x4 | x4 | x4 | x4 | x4 | x4 | %128
w: |||||||||||||||||||
 x4 | x4 | x4 | x4 | x4 | x4 | x4 | x4 | x4 | x4 |[K:G][M:2/2] x8 | x8 | x8 | x8 | x8 | x8 | x8 | %145
w: |||||||||||||||||
 x8 | x8 | x8 | x8 | x8 | x8 | x8 | x8 | x8 | x8 | x8 | x8 | x8 | x8 | x8 | x8 |[M:12/8] x12 | %162
w: |||||||||||||||||
 x12 | x12 | x12 | x12 | x12 | x12 | x12 | x12 | x12 | x12 | x12 | x12 | x12 | x12 | x12 | x12 | %178
w: ||||||||||||||||
 x12 | x12 | x12 | x12 | x12 | x12 | x12 | D6- D x5 | x12 | x12 | x12 | x12 | x12 | x12 | x12 | %193
w: |||||||ciel *||||||||
 x12 | ^c6- cAB c^d=e | ^d3- d x8 | x12 |[M:6/8] x6 |[M:12/8] x12 | x12 | x3[K:bass] x9 | %201
w: |gen- * te\-ha di- schiu- so l'a-|vel! *||||||
 x6[K:treble] x6 | x12 | x12 |[M:6/8] x6 |[M:12/8] x12 | x12 | x12 | x12 | x12 | x12 | x12 | x12 | %213
w: ||||||||||||
[M:6/8] x6 |[M:12/8] x12 | G3 x9 | x12 | x12 | x6 z dd ddd | =e2 z z3 z ee eee | %220
w: ||ciel!|||In- neg- gia- mo\-al Si-|gnor, in- ne- gia- mo\-al Si-|
 =f2 z z3 z ff fff | ^f2 z z ^ee f2 z z ee | f z2 z3 z3 d2 d | g6- g3 g3 | g6- g3- g z2 | z12 | %226
w: gnor, in- neg- gia- mo\-al Si-|gnor, al Si- gnor, al Si-|gnor, al Si-|gnor * Si-|gnor. * *||
 x12 | x12 | x12 |[K:F][M:2/4] x4 | x4 | x4 | x4 | x4 | x4 | x4 | x4 | x4 | x4 | x4 | x4 | x4 | %242
w: ||||||||||||||||
 x4 | x4 | x4 | x4 | x4 | x4 | x4 | x4 | x4 | x4 | x4 | x4 | x4 | x4 | x4 | x4 | x4 | x4 | x4 | %261
w: |||||||||||||||||||
 x4 | x4 | x4 | x4 |[K:G] x4 | x4 | x4 | x4 | x4 | x4 | x4 | x4 | x4 | x4 | x4 | x4 | x4 | x4 | %279
w: ||||||||||||||||||
 x4 | x4 | x4 | x4 | x4 | x4 | x4 | x4 | x4 | x4 | x4 | x4 | x4 | x4 | x4 | x4 | x4 | x4 | x4 | %298
w: |||||||||||||||||||
 x4 | x4 | x4 | x4 | x4 | x4 | x4 | x4 | x4 | x4 | x4 | x4 | x4 | x4 | x4 | x4 | x4 | x4 | x4 | %317
w: |||||||||||||||||||
 x4 | x4 | x4 | x4 | x4 | x4 | x4 | x4 | x4 | x4 | x4 | x4 | x4 | x4 | x4 | x4 | x4 | x4 | x4 | %336
w: |||||||||||||||||||
 x4 | x4 | x4 | x4 | x4 | x4 | x4 |[K:C][M:2/2][K:bass] x8 | x2[K:treble] x6 | x8 | x8 | x8 | x8 | %349
w: |||||||||||||
 x8 | x8 ||[K:F] x8 | x8 | x8 | x8 | x8 | x8 | x8 | x8 | x8 | x8 | x8 | x8 | x8 | x8 | x8 | x8 | %367
w: ||||||||||||||||||
 x8 | x8 | x8 | x8 | x8 | x8 | x8 | x8 | x8 | x8 | x8 | x8 | x8 | x8 | x8 | x8 | x8 | x8 | x8 | %386
w: |||||||||||||||||||
 x8 | x8 | x8 | x8 | x8 | x8 | x8 | x8 | x8 | x8 | x8 | x8 | x8 | x8 | x8 | x8 | x8 | x8 | x8 | %405
w: |||||||||||||||||||
 x8 | x8 | x8 | x8 | x8 | x8 | x8 | x8 | x8 | x8 | x8 | x8 | x8 | x8 | x8 | x8 | x8 | x8 | x8 | %424
w: |||||||||||||||||||
 x8 | x8 | x8 | x8 | x8 | x8 | x8 | x8 | x8 | x8 | x8 | x8 | x8 | x8 | x8 | x8 | x8 | x8 | x8 | %443
w: |||||||||||||||||||
 x8 | x8 | x8 | x8 | x8 | x8 | x8 | x8 | x8 | x8 | x8 | x8 | x8 | x8 | x8 | x8 | x8 | x8 | x8 | %462
w: |||||||||||||||||||
 x8 | x8 | x8 | x8 | x8 | x8 | x8 | x8 | x8 | x8 | x8 | x8 | x8 | x8 | x8 | x8 | x8 | x8 | x8 | %481
w: |||||||||||||||||||
 x8 | x8 | x8 | x8 | x8 | x8 |] %487
w: ||||||

